svgs/thin/arrows-from-line.svg

<svg xmlns="http://www.w3.org/2000/svg" viewBox="0 0 448 512"><!--! Font Awesome Pro 6.3.0 by @fontawesome - https://fontawesome.com License - https://fontawesome.com/license (Commercial License) Copyright 2023 Fonticons, Inc. --><path d="M136 104c2.047 0 4.094-.7813 5.656-2.344L216 27.31V184c0 4.406 3.594 7.984 8 7.984S232 188.4 232 184V27.31l74.34 74.34C307.9 103.2 309.9 104 312 104c5.719 0 8-5.114 8-8.021c0-2.047-.7813-4.073-2.344-5.636l-88-88C228.1 .7813 226 0 223.1 0s-4.094 .7813-5.656 2.344l-88 88C128.8 91.91 128 93.93 128 95.98C128 100.5 131.7 104 136 104zM312 408c-2.047 0-4.094 .7813-5.656 2.344L232 484.7V328c0-4.406-3.594-8.01-8-8.01S216 323.6 216 328v156.7l-74.34-74.34C140.1 408.8 138 408 136 408C131.7 408 128 411.4 128 415.1c0 2.047 .7813 4.099 2.344 5.662l88 88C219.9 511.2 221.9 512 224 512s4.094-.7813 5.656-2.344l88-88C319.2 420.1 320 418 320 415.1C320 411.4 316.3 408 312 408zM440 248H8C3.582 248 0 251.6 0 255.1S3.582 264 8 264h432c4.418 0 8-3.591 8-8.009S444.4 248 440 248z"/></svg>

<svg xmlns="http://www.w3.org/2000/svg" viewBox="0 0 448 512"><!-- Font Awesome Pro 6.0.0-alpha2 by @fontawesome - https://fontawesome.com License - https://fontawesome.com/license (Commercial License) --><path d="M136 104C138.047 104 140.094 103.219 141.656 101.656L216 27.312V184C216 188.406 219.594 192 224 192S232 188.406 232 184V27.312L306.344 101.656C307.906 103.219 309.938 104 312 104C317.719 104 320 98.906 320 96C320 93.953 319.219 91.906 317.656 90.344L229.656 2.344C228.094 0.781 226.047 0 224 0S219.906 0.781 218.344 2.344L130.344 90.344C128.781 91.906 128 93.953 128 96C128 100.57 131.736 104 136 104ZM312 408C309.953 408 307.906 408.781 306.344 410.344L232 484.688V328C232 323.594 228.406 320 224 320S216 323.594 216 328V484.688L141.656 410.344C140.094 408.781 138.047 408 136 408C131.736 408 128 411.43 128 416C128 418.047 128.781 420.094 130.344 421.656L218.344 509.656C219.906 511.219 221.938 512 224 512S228.094 511.219 229.656 509.656L317.656 421.656C319.219 420.094 320 418.047 320 416C320 411.43 316.264 408 312 408ZM440 248H8C3.582 248 0 251.582 0 256S3.582 264 8 264H440C444.418 264 448 260.418 448 256S444.418 248 440 248Z"/></svg>
